X: 41392
T: Twelve Pins, The
R: reel
M: 4/4
K: Gmajor
|:dB B2 dBGB|dA A2 dAFA|DEFG ABcA|defg abge|
dB B2 dBGB|dA A2 dAFA|DEFG ABcA|1 d2cA AGGB:|2 d2cA AGGg||
|:f3e defg|adfd dcAB|cA A2 DFAB|cedB cAA2|
f3e defg|adfd dcAG|DEFG ABcA|1 d2cA AGGB:|2 d2cA AGGg||

